public_html/images/facebook.svg

<?xml version="1.0" encoding="UTF-8" standalone="no"?>
<svg width="66px" height="32px" viewBox="0 0 66 32" version="1.1" xmlns="http://www.w3.org/2000/svg" xmlns:xlink="http://www.w3.org/1999/xlink">
    <!-- Generator: Sketch 3.6 (26304) - http://www.bohemiancoding.com/sketch -->
    <title>Untitled 11</title>
    <desc>Created with Sketch.</desc>
    <defs></defs>
    <g id="Page-1" stroke="none" stroke-width="1" fill="none" fill-rule="evenodd">
        <g id="facebook">
            <g id="Page-1">
                <path d="M13.7413333,24.7034667 L17.3381333,24.7034667 L17.3381333,15.9989333 L19.7376,15.9989333 L20.0554667,12.9994667 L17.3381333,12.9994667 L17.3418667,11.4976 C17.3418667,10.7157333 17.4165333,10.296 18.5386667,10.296 L20.0384,10.296 L20.0384,7.296 L17.6384,7.296 C14.7557333,7.296 13.7413333,8.75146667 13.7413333,11.1984 L13.7413333,12.9994667 L11.9445333,12.9994667 L11.9445333,15.9994667 L13.7413333,15.9994667 L13.7413333,24.7034667 L13.7413333,24.7034667 L13.7413333,24.7034667 Z M0,0 L32,0 L32,32 L0,32 L0,0 L0,0 L0,0 Z" id="Shape" fill="#5790B1"></path>
                <path d="M47.0746667,24.7034667 L50.6714667,24.7034667 L50.6714667,15.9989333 L53.0709333,15.9989333 L53.3888,12.9994667 L50.6714667,12.9994667 L50.6752,11.4976 C50.6752,10.7157333 50.7498667,10.296 51.872,10.296 L53.3717333,10.296 L53.3717333,7.296 L50.9717333,7.296 C48.0890667,7.296 47.0746667,8.75146667 47.0746667,11.1984 L47.0746667,12.9994667 L45.2778667,12.9994667 L45.2778667,15.9994667 L47.0746667,15.9994667 L47.0746667,24.7034667 L47.0746667,24.7034667 L47.0746667,24.7034667 Z M33.3333333,0 L65.3333333,0 L65.3333333,32 L33.3333333,32 L33.3333333,0 L33.3333333,0 L33.3333333,0 Z" id="Shape" fill="#0A4B82"></path>
            </g>
        </g>
    </g>
</svg>

<svg width="66" height="32" xmlns="http://www.w3.org/2000/svg"><g fill="none" fill-rule="evenodd"><path d="M13.74 24.703h3.598V16h2.4l.317-3h-2.717l.004-1.502c0-.782.075-1.202 1.197-1.202h1.497v-3h-2.4c-2.882 0-3.897 1.455-3.897 3.902v1.8h-1.795v3h1.796v8.705zM0 0h32v32H0V0z" fill="#5790B1"/><path d="M47.075 24.703h3.596V16h2.4l.32-3h-2.72l.006-1.502c0-.782.075-1.202 1.197-1.202h1.5v-3h-2.4c-2.883 0-3.897 1.455-3.897 3.902v1.8H45.28v3h1.796v8.705zM33.333 0h32v32h-32V0z" fill="#0A4B82"/></g></svg>
